poi/svg/1401.svg

<?xml version="1.0" encoding="UTF-8" standalone="no"?>
<svg
   xmlns:dc="http://purl.org/dc/elements/1.1/"
   xmlns:cc="http://creativecommons.org/ns#"
   xmlns:rdf="http://www.w3.org/1999/02/22-rdf-syntax-ns#"
   xmlns:svg="http://www.w3.org/2000/svg"
   xmlns="http://www.w3.org/2000/svg"
   xmlns:sodipodi="http://sodipodi.sourceforge.net/DTD/sodipodi-0.dtd"
   xmlns:inkscape="http://www.inkscape.org/namespaces/inkscape"
   inkscape:version="1.0 (4035a4fb49, 2020-05-01)"
   sodipodi:docname="1401.svg"
   id="svg20"
   version="1.2"
   viewBox="0 0 42.519639 42.519639"
   height="14.999999mm"
   width="14.999999mm">
  <metadata
     id="metadata24">
    <rdf:RDF>
      <cc:Work
         rdf:about="">
        <dc:format>image/svg+xml</dc:format>
        <dc:type
           rdf:resource="http://purl.org/dc/dcmitype/StillImage" />
        <dc:title>Qt SVG Document</dc:title>
      </cc:Work>
    </rdf:RDF>
  </metadata>
  <sodipodi:namedview
     inkscape:current-layer="svg20"
     inkscape:window-maximized="0"
     inkscape:window-y="0"
     inkscape:window-x="0"
     inkscape:cy="28.346482"
     inkscape:cx="28.346482"
     inkscape:zoom="5.8410537"
     showgrid="false"
     id="namedview22"
     inkscape:window-height="480"
     inkscape:window-width="1034"
     inkscape:pageshadow="2"
     inkscape:pageopacity="0"
     guidetolerance="10"
     gridtolerance="10"
     objecttolerance="10"
     borderopacity="1"
     bordercolor="#666666"
     pagecolor="#ffffff" />
  <title
     id="title2">Qt SVG Document</title>
  <desc
     id="desc4">Generated with Qt</desc>
  <defs
     id="defs6" />
  <g
     transform="translate(5.25984,5.25984)"
     id="g18"
     stroke-linejoin="bevel"
     stroke-linecap="square"
     fill-rule="evenodd"
     stroke-width="1"
     stroke="#000000"
     fill="none">
    <g
       id="g10"
       font-style="normal"
       font-weight="400"
       font-size="7.8px"
       font-family="'MS Shell Dlg 2'"
       stroke="none"
       fill-opacity="1"
       fill="#8a5aa5">
      <path
         id="path8"
         d="M 37.2598,16 C 37.2598,27.7415 27.7415,37.2598 16,37.2598 4.25851,37.2598 -5.25984,27.7415 -5.25984,16 -5.25984,4.25851 4.25851,-5.25984 16,-5.25984 27.7415,-5.25984 37.2598,4.25851 37.2598,16"
         fill-rule="evenodd"
         vector-effect="non-scaling-stroke" />
    </g>
    <g
       id="g14"
       font-style="normal"
       font-weight="400"
       font-size="7.8px"
       font-family="'MS Shell Dlg 2'"
       transform="translate(16,12.0315)"
       stroke="none"
       fill-opacity="1"
       fill="#ffffff">
      <path
         id="path12"
         d="m 10.1113,6.69238 c 0.5179,0.60189 0.7769,1.34375 0.7769,2.22559 0,0.97982 -0.259,1.82663 -0.7769,2.54053 C 9.56543,12.1724 8.86556,12.7603 8.01172,13.2222 7.11589,13.6841 6.06608,14.069 4.8623,14.377 4.09245,14.5589 3.37858,14.6919 2.7207,14.7759 v 2.6245 H 1.08301 v -2.4146 l -2.09961,0.084 v 2.3306 h -1.67969 v -2.3726 c -0.26595,0 -0.5284,-0.007 -0.78735,-0.021 -0.25895,-0.014 -0.50041,-0.035 -0.72437,-0.063 -0.5459,-0.0559 -1.0778,-0.1119 -1.5957,-0.1679 -0.5179,-0.056 -1.01481,-0.161 -1.49072,-0.315 -0.97982,-0.2519 -1.81267,-0.5949 -2.49854,-1.0288 -0.68583,-0.4619 -1.02883,-1.0638 -1.02883,-1.8056 0,-0.336 0.098,-0.6089 0.294,-0.8189 0.1959,-0.2239 0.4549,-0.4059 0.77682,-0.5459 0.16797,-0.084 0.34644,-0.1505 0.5354,-0.1994 0.18897,-0.049 0.39543,-0.10153 0.61939,-0.15751 0.43392,-0.08399 0.88183,-0.12598 1.34375,-0.12598 0.22396,0 0.43742,0.007 0.64038,0.02099 0.20296,0.014 0.41642,0.035 0.64038,0.06299 v 0.56691 c 0,1.0358 0.41292,1.8057 1.23877,2.3096 0.46191,0.2939 1.14079,0.5249 2.03662,0.6928 V 5.66357 C -3.04622,5.56559 -3.38566,5.46761 -3.7146,5.36963 -4.04354,5.27165 -4.36198,5.16667 -4.66992,5.05469 -5.24382,4.88672 -5.78271,4.70125 -6.28662,4.49829 -6.79053,4.29533 -7.25944,4.06087 -7.69336,3.79492 -8.09928,3.57096 -8.48071,3.31551 -8.83765,3.02856 -9.19458,2.74162 -9.51302,2.44417 -9.79297,2.13623 -10.3109,1.43636 -10.5698,0.659505 -10.5698,-0.194336 c 0,-0.881834 0.2589,-1.672684 0.77683,-2.372554 0.48991,-0.65788 1.16179,-1.19678 2.01563,-1.6167 0.74186,-0.46192 1.72867,-0.82585 2.96045,-1.0918 l 2.1206,-0.33594 V -8.4458 h 1.67969 v 2.7085 l 2.09961,-0.042 V -8.4458 H 2.7207 v 2.7085 c 0.19597,0 0.38143,0.00699 0.5564,0.02099 0.17497,0.014 0.36043,0.021 0.5564,0.021 0.4899,0.05599 0.96932,0.11898 1.43823,0.18896 0.46891,0.06999 0.93432,0.16097 1.39624,0.27295 0.92383,0.20996 1.68668,0.5249 2.28857,0.94483 0.62989,0.37793 0.94483,0.90983 0.94483,1.5957 0,0.32194 -0.10498,0.58089 -0.31494,0.77685 -0.19597,0.26595 -0.46192,0.45492 -0.79786,0.5669 -0.18196,0.05599 -0.36393,0.11198 -0.54589,0.16797 -0.18197,0.05599 -0.39193,0.09798 -0.62989,0.12597 -0.39192,0.083989 -0.81884,0.125981 -1.28076,0.125981 -0.20996,0 -0.41992,-0.006999 -0.62988,-0.020996 C 5.49219,-0.964193 5.26823,-0.985189 5.03027,-1.01318 v -0.5669 c 0,-0.82584 -0.35693,-1.45573 -1.0708,-1.88965 C 3.62354,-3.69368 3.21061,-3.87565 2.7207,-4.01563 V 3.24902 C 3.08464,3.33301 3.44857,3.41699 3.8125,3.50098 4.17643,3.58496 4.51237,3.68294 4.82031,3.79492 6.08008,4.14486 7.12988,4.55078 7.96973,5.0127 8.85156,5.5026 9.56543,6.0625 10.1113,6.69238 M -1.0166,-4.33057 V 2.38818 L 1.08301,2.80811 V -4.33057 H -1.0166 m -1.99463,6.10987 0.31494,0.08398 v -5.96289 l -0.44092,0.08398 c -0.48991,0.16797 -0.97282,0.37793 -1.44873,0.62989 -0.43392,0.23795 -0.76286,0.5389 -0.98681,0.90283 -0.26595,0.34993 -0.39893,0.74186 -0.39893,1.17578 0,0.5459 0.13298,0.986817 0.39893,1.322755 0.30794,0.433919 0.65087,0.762858 1.0288,0.986815 0.22396,0.15397 0.45842,0.29395 0.70337,0.41992 0.24496,0.12598 0.52141,0.24496 0.82935,0.35694 M 1.08301,13.5161 V 6.52441 L -1.0166,6.0835 v 7.4746 l 2.09961,-0.042 M 5.80713,11.3325 C 6.10107,10.9266 6.24805,10.4927 6.24805,10.0308 6.24805,9.55485 6.10107,9.12793 5.80713,8.75 5.52718,8.37207 5.14225,8.04313 4.65234,7.76318 4.16243,7.44124 3.63053,7.21029 3.05664,7.07031 2.83268,7.01432 2.7207,6.98633 2.7207,6.98633 v 6.23587 c 0.22396,-0.056 0.34994,-0.084 0.37793,-0.084 0.65788,-0.224 1.20378,-0.4829 1.6377,-0.7769 0.46191,-0.2799 0.81885,-0.6229 1.0708,-1.0288"
         fill-rule="evenodd"
         vector-effect="none" />
    </g>
    <g
       id="g16"
       font-style="normal"
       font-weight="400"
       font-size="7.8px"
       font-family="'MS Shell Dlg 2'"
       stroke="none"
       fill-opacity="1"
       fill="#8a5aa5" />
  </g>
</svg>

<?xml version="1.0" encoding="UTF-8" standalone="no"?>
<svg width="11.2889mm" height="11.2889mm"
 viewBox="0 0 32 32"
 xmlns="http://www.w3.org/2000/svg" xmlns:xlink="http://www.w3.org/1999/xlink"  version="1.2" baseProfile="tiny">
<title>Qt SVG Document</title>
<desc>Generated with Qt</desc>
<defs>
</defs>
<g fill="none" stroke="black" stroke-width="1" fill-rule="evenodd" stroke-linecap="square" stroke-linejoin="bevel" >

<g fill="#8a5aa5" fill-opacity="1" stroke="none" transform="matrix(1,0,0,1,0,0)"
font-family="MS Shell Dlg 2" font-size="7.8" font-weight="400" font-style="normal" 
>
<path vector-effect="non-scaling-stroke" fill-rule="evenodd" d="M37.2598,16 C37.2598,27.7415 27.7415,37.2598 16,37.2598 C4.25851,37.2598 -5.25984,27.7415 -5.25984,16 C-5.25984,4.25851 4.25851,-5.25984 16,-5.25984 C27.7415,-5.25984 37.2598,4.25851 37.2598,16 "/>
</g>

<g fill="#ffffff" fill-opacity="1" stroke="none" transform="matrix(1,0,0,1,16,12.0315)"
font-family="MS Shell Dlg 2" font-size="7.8" font-weight="400" font-style="normal" 
>
<path vector-effect="none" fill-rule="evenodd" d="M10.1113,6.69238 C10.6292,7.29427 10.8882,8.03613 10.8882,8.91797 C10.8882,9.89779 10.6292,10.7446 10.1113,11.4585 C9.56543,12.1724 8.86556,12.7603 8.01172,13.2222 C7.11589,13.6841 6.06608,14.069 4.8623,14.377 C4.09245,14.5589 3.37858,14.6919 2.7207,14.7759 L2.7207,17.4004 L1.08301,17.4004 L1.08301,14.9858 L-1.0166,15.0698 L-1.0166,17.4004 L-2.69629,17.4004 L-2.69629,15.0278 C-2.96224,15.0278 -3.22469,15.0208 -3.48364,15.0068 C-3.74259,14.9928 -3.98405,14.9718 -4.20801,14.9438 C-4.75391,14.8879 -5.28581,14.8319 -5.80371,14.7759 C-6.32161,14.7199 -6.81852,14.6149 -7.29443,14.4609 C-8.27425,14.209 -9.1071,13.866 -9.79297,13.4321 C-10.4788,12.9702 -10.8218,12.3683 -10.8218,11.6265 C-10.8218,11.2905 -10.7238,11.0176 -10.5278,10.8076 C-10.3319,10.5837 -10.0729,10.4017 -9.75098,10.2617 C-9.58301,10.1777 -9.40454,10.1112 -9.21558,10.0623 C-9.02661,10.0133 -8.82015,9.96077 -8.59619,9.90479 C-8.16227,9.8208 -7.71436,9.77881 -7.25244,9.77881 C-7.02848,9.77881 -6.81502,9.78581 -6.61206,9.7998 C-6.4091,9.8138 -6.19564,9.8348 -5.97168,9.86279 L-5.97168,10.4297 C-5.97168,11.4655 -5.55876,12.2354 -4.73291,12.7393 C-4.271,13.0332 -3.59212,13.2642 -2.69629,13.4321 L-2.69629,5.66357 C-3.04622,5.56559 -3.38566,5.46761 -3.7146,5.36963 C-4.04354,5.27165 -4.36198,5.16667 -4.66992,5.05469 C-5.24382,4.88672 -5.78271,4.70125 -6.28662,4.49829 C-6.79053,4.29533 -7.25944,4.06087 -7.69336,3.79492 C-8.09928,3.57096 -8.48071,3.31551 -8.83765,3.02856 C-9.19458,2.74162 -9.51302,2.44417 -9.79297,2.13623 C-10.3109,1.43636 -10.5698,0.659505 -10.5698,-0.194336 C-10.5698,-1.07617 -10.3109,-1.86702 -9.79297,-2.56689 C-9.30306,-3.22477 -8.63118,-3.76367 -7.77734,-4.18359 C-7.03548,-4.64551 -6.04867,-5.00944 -4.81689,-5.27539 L-2.69629,-5.61133 L-2.69629,-8.4458 L-1.0166,-8.4458 L-1.0166,-5.7373 L1.08301,-5.7793 L1.08301,-8.4458 L2.7207,-8.4458 L2.7207,-5.7373 C2.91667,-5.7373 3.10213,-5.73031 3.2771,-5.71631 C3.45207,-5.70231 3.63753,-5.69531 3.8335,-5.69531 C4.3234,-5.63932 4.80282,-5.57633 5.27173,-5.50635 C5.74064,-5.43636 6.20605,-5.34538 6.66797,-5.2334 C7.5918,-5.02344 8.35465,-4.7085 8.95654,-4.28857 C9.58643,-3.91064 9.90137,-3.37874 9.90137,-2.69287 C9.90137,-2.37093 9.79639,-2.11198 9.58643,-1.91602 C9.39046,-1.65007 9.12451,-1.4611 8.78857,-1.34912 C8.60661,-1.29313 8.42464,-1.23714 8.24268,-1.18115 C8.06071,-1.12516 7.85075,-1.08317 7.61279,-1.05518 C7.22087,-0.971191 6.79395,-0.929199 6.33203,-0.929199 C6.12207,-0.929199 5.91211,-0.936198 5.70215,-0.950195 C5.49219,-0.964193 5.26823,-0.985189 5.03027,-1.01318 L5.03027,-1.58008 C5.03027,-2.40592 4.67334,-3.03581 3.95947,-3.46973 C3.62354,-3.69368 3.21061,-3.87565 2.7207,-4.01563 L2.7207,3.24902 C3.08464,3.33301 3.44857,3.41699 3.8125,3.50098 C4.17643,3.58496 4.51237,3.68294 4.82031,3.79492 C6.08008,4.14486 7.12988,4.55078 7.96973,5.0127 C8.85156,5.5026 9.56543,6.0625 10.1113,6.69238 M-1.0166,-4.33057 L-1.0166,2.38818 L1.08301,2.80811 L1.08301,-4.33057 L-1.0166,-4.33057 M-3.01123,1.7793 L-2.69629,1.86328 L-2.69629,-4.09961 L-3.13721,-4.01563 C-3.62712,-3.84766 -4.11003,-3.6377 -4.58594,-3.38574 C-5.01986,-3.14779 -5.3488,-2.84684 -5.57275,-2.48291 C-5.8387,-2.13298 -5.97168,-1.74105 -5.97168,-1.30713 C-5.97168,-0.76123 -5.8387,-0.320313 -5.57275,0.015625 C-5.26481,0.449544 -4.92188,0.778483 -4.54395,1.00244 C-4.31999,1.15641 -4.08553,1.29639 -3.84058,1.42236 C-3.59562,1.54834 -3.31917,1.66732 -3.01123,1.7793 M1.08301,13.5161 L1.08301,6.52441 L-1.0166,6.0835 L-1.0166,13.5581 L1.08301,13.5161 M5.80713,11.3325 C6.10107,10.9266 6.24805,10.4927 6.24805,10.0308 C6.24805,9.55485 6.10107,9.12793 5.80713,8.75 C5.52718,8.37207 5.14225,8.04313 4.65234,7.76318 C4.16243,7.44124 3.63053,7.21029 3.05664,7.07031 C2.83268,7.01432 2.7207,6.98633 2.7207,6.98633 L2.7207,13.2222 C2.94466,13.1662 3.07064,13.1382 3.09863,13.1382 C3.75651,12.9142 4.30241,12.6553 4.73633,12.3613 C5.19824,12.0814 5.55518,11.7384 5.80713,11.3325 "/>
</g>

<g fill="#8a5aa5" fill-opacity="1" stroke="none" transform="matrix(1,0,0,1,0,0)"
font-family="MS Shell Dlg 2" font-size="7.8" font-weight="400" font-style="normal" 
>
</g>
</g>
</svg>
